;FLAVOR:Marlin
;TIME:9255
;Filament used: 8.66801m
;Layer height: 0.15
;Generated with Cura_SteamEngine 3.5.0
M140 S70
M105
M190 S70
M104 S230
M105
M109 S230
M82 ;absolute extrusion mode
G21 ;metric values
G90 ;absolute positioning
M82 ;set extruder to absolute mode
M107 ;start with the fan off
G28 X0 Y0 ;move X/Y to min endstops
G28 Z0 ;move Z to min endstops
G1 Z15.0 F9000 ;move the platform down 15mm
G92 E0 ;zero the extruded length
G1 F200 E3 ;extrude 3mm of feed stock
G92 E0 ;zero the extruded length again
G1 F9000
;Put printing message on LCD screen
M117 Printing...
G92 E0
G1 F1500 E-6.5
;LAYER_COUNT:203
;LAYER:-7
M107
G0 F7200 X31.893 Y75.821 Z0.36
;TYPE:SUPPORT-INTERFACE
G1 F1500 E0
G1 F1350 X32.748 Y75.476 E0.11039
G1 X32.915 Y75.416 E0.13164
G1 X33.754 Y75.147 E0.23714
G1 X33.918 Y75.101 E0.25753
G1 X34.79 Y74.889 E0.36498
G1 X34.952 Y74.856 E0.38478
G1 X35.845 Y74.708 E0.49316
G1 X36.022 Y74.685 E0.51453
G1 X36.916 Y74.602 E0.62204
G1 X37.799 Y74.574 E0.72782
G1 X164.726 Y74.574 E15.92561
G1 X165.849 Y74.619 E16.06019
G1 X166.942 Y74.746 E16.19194
G1 X167.81 Y74.906 E16.29762
G1 X168.835 Y75.167 E16.42427
G1 X169.013 Y75.221 E16.44654
G1 X170.002 Y75.563 E16.57184
G1 X170.849 Y75.923 E16.68204
G1 X171.922 Y76.474 E16.82646
G1 X172.701 Y76.949 E16.93571
G1 X172.852 Y77.049 E16.95739
G1 X173.714 Y77.673 E17.08481
G1 X174.514 Y78.346 E17.20999
G1 X175.026 Y78.828 E17.29419
G1 X175.299 Y79.102 E17.3405
G1 X175.945 Y79.798 E17.4542
G1 X176.064 Y79.937 E17.47611
G1 X176.618 Y80.628 E17.58216
G1 X176.722 Y80.767 E17.60294
G1 X177.215 Y81.482 E17.70693
G1 X177.331 Y81.666 E17.73298
G1 X177.771 Y82.415 E17.83699
G1 X177.851 Y82.563 E17.85713
G1 X178.31 Y83.509 E17.98303
G1 X178.652 Y84.354 E18.09218
G1 X178.711 Y84.519 E18.11316
G1 X178.983 Y85.366 E18.21968
G1 X179.029 Y85.528 E18.23985
G1 X179.241 Y86.402 E18.34753
G1 X179.274 Y86.56 E18.36686
G1 X179.422 Y87.452 E18.47512
G1 X179.446 Y87.638 E18.49758
G1 X179.536 Y88.674 E18.62209
G1 X179.557 Y89.407 E18.70989
G1 X179.557 Y105.381 E20.62256
G1 X179.511 Y106.522 E20.7593
G1 X179.358 Y107.91 E20.9265
G1 X179.377 Y107.913 E20.9288
G1 X179.357 Y108.178 E20.96062
G1 X179.357 Y112.092 E21.42927
G1 X179.311 Y113.233 E21.566
G1 X179.184 Y114.325 E21.69763
G1 X178.992 Y115.337 E21.82097
G1 X178.761 Y116.222 E21.93048
G1 X178.709 Y116.394 E21.952
G1 X178.423 Y117.236 E22.05847
G1 X178.359 Y117.402 E22.07978
G1 X178.018 Y118.205 E22.18424
G1 X177.937 Y118.38 E22.20733
G1 X177.521 Y119.188 E22.31614
G1 X177.456 Y119.305 E22.33217
G1 X176.981 Y120.084 E22.44141
G1 X176.881 Y120.235 E22.4631
G1 X176.257 Y121.097 E22.59052
G1 X175.584 Y121.897 E22.71569
G1 X175.102 Y122.409 E22.79989
G1 X174.945 Y122.565 E22.82639
G1 X174.249 Y123.211 E22.94009
G1 X174.11 Y123.33 E22.962
G1 X173.419 Y123.884 E23.06805
G1 X173.28 Y123.988 E23.08884
G1 X172.565 Y124.481 E23.19283
G1 X172.381 Y124.597 E23.21887
G1 X171.483 Y125.117 E23.34312
G1 X170.538 Y125.576 E23.46891
G1 X169.683 Y125.921 E23.57931
G1 X169.52 Y125.979 E23.60002
G1 X168.677 Y126.25 E23.70605
G1 X168.513 Y126.296 E23.72644
G1 X167.641 Y126.508 E23.83389
G1 X167.479 Y126.541 E23.85369
G1 X166.586 Y126.689 E23.96207
G1 X166.409 Y126.712 E23.98344
G1 X165.372 Y126.802 E24.10808
G1 X164.637 Y126.823 E24.19612
G1 X162.339 Y126.823 E24.47127
G1 X161.353 Y126.787 E24.58941
G1 X160.3 Y126.678 E24.71617
G1 X160.126 Y126.653 E24.73722
G1 X159.24 Y126.49 E24.84508
G1 X158.215 Y126.227 E24.97179
G1 X157.21 Y125.891 E25.09867
G1 X157.044 Y125.828 E25.11993
G1 X156.229 Y125.482 E25.22595
G1 X155.905 Y125.323 E25.26916
G1 X155.291 Y125.055 E25.34938
G1 X154.636 Y124.863 E25.4311
G1 X153.965 Y124.756 E25.51246
G1 X153.457 Y124.731 E25.57336
G1 X49.052 Y124.731 E38.07445
G1 X48.384 Y124.773 E38.15459
G1 X47.713 Y124.902 E38.23641
G1 X47.069 Y125.113 E38.31755
G1 X46.692 Y125.281 E38.36697
G1 X46.217 Y125.514 E38.43032
G1 X46.07 Y125.579 E38.44956
G1 X45.223 Y125.921 E38.55894
G1 X45.06 Y125.979 E38.57965
G1 X44.217 Y126.25 E38.68568
G1 X44.053 Y126.296 E38.70607
G1 X43.181 Y126.508 E38.81352
G1 X43.019 Y126.541 E38.83332
G1 X42.126 Y126.689 E38.9417
G1 X41.949 Y126.712 E38.96307
G1 X40.912 Y126.802 E39.08771
G1 X40.177 Y126.823 E39.17575
G1 X37.879 Y126.823 E39.4509
G1 X36.893 Y126.787 E39.56904
G1 X35.84 Y126.678 E39.6958
G1 X35.666 Y126.653 E39.71685
G1 X34.78 Y126.49 E39.82471
G1 X33.755 Y126.227 E39.95142
G1 X32.75 Y125.891 E40.0783
G1 X32.584 Y125.828 E40.09956
G1 X31.756 Y125.477 E40.20724
G1 X30.825 Y125.005 E40.33223
G1 X30.654 Y124.909 E40.35571
G1 X29.767 Y124.363 E40.48042
G1 X29.011 Y123.823 E40.59166
G1 X28.186 Y123.143 E40.71968
G1 X27.542 Y122.54 E40.82531
G1 X27.41 Y122.407 E40.84775
G1 X26.767 Y121.714 E40.96094
G1 X26.09 Y120.879 E41.08966
G1 X25.984 Y120.736 E41.11097
G1 X25.499 Y120.032 E41.21333
G1 X25.383 Y119.848 E41.23938
G1 X24.863 Y118.95 E41.36362
G1 X24.404 Y118.005 E41.48942
G1 X24.061 Y117.154 E41.59928
G1 X23.999 Y116.982 E41.62117
G1 X23.722 Y116.12 E41.72958
G1 X23.469 Y115.097 E41.85576
G1 X23.44 Y114.953 E41.87335
G1 X23.289 Y114.044 E41.98368
G1 X23.268 Y113.877 E42.00384
G1 X23.185 Y112.977 E42.11206
G1 X23.157 Y112.107 E42.21628
G1 X23.157 Y108.166 E42.68816
G1 X23.121 Y107.549 E42.76216
G1 X23.016 Y106.676 E42.86745
G1 X23.002 Y106.504 E42.88811
G1 X22.957 Y105.349 E43.02651
G1 X22.957 Y89.422 E44.93355
G1 X23.003 Y88.281 E45.07028
G1 X23.13 Y87.189 E45.20192
G1 X23.322 Y86.177 E45.32525
G1 X23.554 Y85.289 E45.43515
G1 X23.605 Y85.12 E45.45628
G1 X23.891 Y84.278 E45.56276
G1 X23.955 Y84.112 E45.58406
G1 X24.296 Y83.309 E45.68852
G1 X24.377 Y83.134 E45.71161
G1 X24.793 Y82.326 E45.82043
G1 X24.858 Y82.209 E45.83645
G1 X25.333 Y81.43 E45.9457
G1 X25.433 Y81.279 E45.96739
G1 X26.057 Y80.417 E46.0948
G1 X26.73 Y79.617 E46.21998
G1 X27.212 Y79.105 E46.30418
G1 X27.487 Y78.831 E46.35066
G1 X28.182 Y78.186 E46.46419
G1 X28.321 Y78.067 E46.4861
G1 X29.012 Y77.513 E46.59215
G1 X29.151 Y77.409 E46.61293
G1 X29.866 Y76.916 E46.71692
G1 X30.05 Y76.8 E46.74297
G1 X30.948 Y76.28 E46.86722
G1 X31.893 Y75.821 E46.99301
G0 F7200 X32 Y75.777
G1 F1350 X32 Y125.58 E52.95624
G0 F7200 X33.6 Y126.175
G1 F1350 X33.6 Y75.196 E59.06029
G0 F7200 X35.2 Y74.814
G1 F1350 X35.2 Y126.567 E65.25701
G0 F7200 X36.8 Y126.777
G1 F1350 X36.8 Y74.612 E71.50307
G0 F7200 X38.4 Y74.574
G1 F1350 X38.4 Y126.823 E77.75918
G0 F7200 X40 Y126.823
G1 F1350 X40 Y74.574 E84.01529
G0 F7200 X41.6 Y74.574
G1 F1350 X41.6 Y126.743 E90.26182
G0 F7200 X43.2 Y126.504
G1 F1350 X43.2 Y74.574 E96.47974
G0 F7200 X44.8 Y74.574
G1 F1350 X44.8 Y126.063 E102.64485
G0 F7200 X46.4 Y125.425
G1 F1350 X46.4 Y74.574 E108.73357
G0 F7200 X48 Y74.574
G1 F1350 X48 Y124.847 E114.75308
G0 F7200 X49.6 Y124.731
G1 F1350 X49.6 Y74.574 E120.75871
G0 F7200 X51.2 Y74.574
G1 F1350 X51.2 Y124.731 E126.76433
G0 F7200 X52.8 Y124.731
G1 F1350 X52.8 Y74.574 E132.76995
G0 F7200 X54.4 Y74.574
G1 F1350 X54.4 Y124.731 E138.77557
G0 F7200 X56 Y124.731
G1 F1350 X56 Y74.574 E144.7812
G0 F7200 X57.6 Y74.574
G1 F1350 X57.6 Y124.731 E150.78682
G0 F7200 X59.2 Y124.731
G1 F1350 X59.2 Y74.574 E156.79244
G0 F7200 X60.8 Y74.574
G1 F1350 X60.8 Y124.731 E162.79807
G0 F7200 X62.4 Y124.731
G1 F1350 X62.4 Y74.574 E168.80369
G0 F7200 X64 Y74.574
G1 F1350 X64 Y124.731 E174.80931
G0 F7200 X65.6 Y124.731
G1 F1350 X65.6 Y74.574 E180.81494
G0 F7200 X67.2 Y74.574
G1 F1350 X67.2 Y124.731 E186.82056
G0 F7200 X68.8 Y124.731
G1 F1350 X68.8 Y74.574 E192.82618
G0 F7200 X70.4 Y74.574
G1 F1350 X70.4 Y124.731 E198.8318
G0 F7200 X72 Y124.731
G1 F1350 X72 Y74.574 E204.83743
G0 F7200 X73.6 Y74.574
G1 F1350 X73.6 Y124.731 E210.84305
G0 F7200 X75.2 Y124.731
G1 F1350 X75.2 Y74.574 E216.84867
G0 F7200 X76.8 Y74.574
G1 F1350 X76.8 Y124.731 E222.8543
G0 F7200 X78.4 Y124.731
G1 F1350 X78.4 Y74.574 E228.85992
G0 F7200 X80 Y74.574
G1 F1350 X80 Y124.731 E234.86554
G0 F7200 X81.6 Y124.731
G1 F1350 X81.6 Y74.574 E240.87116
G0 F7200 X83.2 Y74.574
G1 F1350 X83.2 Y124.731 E246.87679
G0 F7200 X84.8 Y124.731
G1 F1350 X84.8 Y74.574 E252.88241
G0 F7200 X86.4 Y74.574
G1 F1350 X86.4 Y124.731 E258.88803
G0 F7200 X88 Y124.731
G1 F1350 X88 Y74.574 E264.89366
G0 F7200 X89.6 Y74.574
G1 F1350 X89.6 Y124.731 E270.89928
G0 F7200 X91.2 Y124.731
G1 F1350 X91.2 Y74.574 E276.9049
G0 F7200 X92.8 Y74.574
G1 F1350 X92.8 Y124.731 E282.91053
G0 F7200 X94.4 Y124.731
G1 F1350 X94.4 Y74.574 E288.91615
G0 F7200 X96 Y74.574
G1 F1350 X96 Y124.731 E294.92177
G0 F7200 X97.6 Y124.731
G1 F1350 X97.6 Y74.574 E300.92739
G0 F7200 X99.2 Y74.574
G1 F1350 X99.2 Y124.731 E306.93302
G0 F7200 X100.8 Y124.731
G1 F1350 X100.8 Y74.574 E312.93864
G0 F7200 X102.4 Y74.574
G1 F1350 X102.4 Y124.731 E318.94426
G0 F7200 X104 Y124.731
G1 F1350 X104 Y74.574 E324.94989
G0 F7200 X105.6 Y74.574
G1 F1350 X105.6 Y124.731 E330.95551
G0 F7200 X107.2 Y124.731
G1 F1350 X107.2 Y74.574 E336.96113
G0 F7200 X108.8 Y74.574
G1 F1350 X108.8 Y124.731 E342.96675
G0 F7200 X110.4 Y124.731
G1 F1350 X110.4 Y74.574 E348.97238
G0 F7200 X112 Y74.574
G1 F1350 X112 Y124.731 E354.978
G0 F7200 X113.6 Y124.731
G1 F1350 X113.6 Y74.574 E360.98362
G0 F7200 X115.2 Y74.574
G1 F1350 X115.2 Y124.731 E366.98925
G0 F7200 X116.8 Y124.731
G1 F1350 X116.8 Y74.574 E372.99487
G0 F7200 X118.4 Y74.574
G1 F1350 X118.4 Y124.731 E379.00049
G0 F7200 X120 Y124.731
G1 F1350 X120 Y74.574 E385.00612
G0 F7200 X121.6 Y74.574
G1 F1350 X121.6 Y124.731 E391.01174
G0 F7200 X123.2 Y124.731
G1 F1350 X123.2 Y74.574 E397.01736
G0 F7200 X124.8 Y74.574
G1 F1350 X124.8 Y124.731 E403.02298
G0 F7200 X126.4 Y124.731
G1 F1350 X126.4 Y74.574 E409.02861
G0 F7200 X128 Y74.574
G1 F1350 X128 Y124.731 E415.03423
G0 F7200 X129.6 Y124.731
G1 F1350 X129.6 Y74.574 E421.03985
G0 F7200 X131.2 Y74.574
G1 F1350 X131.2 Y124.731 E427.04548
G0 F7200 X132.8 Y124.731
G1 F1350 X132.8 Y74.574 E433.0511
G0 F7200 X134.4 Y74.574
G1 F1350 X134.4 Y124.731 E439.05672
G0 F7200 X136 Y124.731
G1 F1350 X136 Y74.574 E445.06234
G0 F7200 X137.6 Y74.574
G1 F1350 X137.6 Y124.731 E451.06797
G0 F7200 X139.2 Y124.731
G1 F1350 X139.2 Y74.574 E457.07359
G0 F7200 X140.8 Y74.574
G1 F1350 X140.8 Y124.731 E463.07921
G0 F7200 X142.4 Y124.731
G1 F1350 X142.4 Y74.574 E469.08484
G0 F7200 X144 Y74.574
G1 F1350 X144 Y124.731 E475.09046
G0 F7200 X145.6 Y124.731
G1 F1350 X145.6 Y74.574 E481.09608
G0 F7200 X147.2 Y74.574
G1 F1350 X147.2 Y124.731 E487.10171
G0 F7200 X148.8 Y124.731
G1 F1350 X148.8 Y74.574 E493.10733
G0 F7200 X150.4 Y74.574
G1 F1350 X150.4 Y124.731 E499.11295
G0 F7200 X152 Y124.731
G1 F1350 X152 Y74.574 E505.11857
G0 F7200 X153.6 Y74.574
G1 F1350 X153.6 Y124.738 E511.12504
G0 F7200 X155.2 Y125.028
G1 F1350 X155.2 Y74.574 E517.16622
G0 F7200 X156.8 Y74.574
G1 F1350 X156.8 Y125.724 E523.29074
G0 F7200 X158.4 Y126.274
G1 F1350 X158.4 Y74.574 E529.48112
G0 F7200 X160 Y74.574
G1 F1350 X160 Y126.629 E535.714
G0 F7200 X161.6 Y126.796
G1 F1350 X161.6 Y74.574 E541.96688
G0 F7200 X163.2 Y74.574
G1 F1350 X163.2 Y126.823 E548.22299
G0 F7200 X164.8 Y126.819
G1 F1350 X164.8 Y74.577 E554.47826
G0 F7200 X166.4 Y74.684
G1 F1350 X166.4 Y126.713 E560.70803
G0 F7200 X168 Y126.421
G1 F1350 X168 Y74.955 E566.87039
G0 F7200 X169.6 Y75.424
G1 F1350 X169.6 Y125.951 E572.92032
G0 F7200 X171.2 Y125.255
G1 F1350 X171.2 Y76.104 E578.80549
G0 F7200 X172.8 Y77.015
G1 F1350 X172.8 Y124.319 E584.4695
G0 F7200 X174.4 Y123.071
G1 F1350 X174.4 Y78.251 E589.83609
G0 F7200 X176 Y79.863
G1 F1350 X176 Y121.403 E594.80994
G0 F7200 X177.6 Y119.035
G1 F1350 X177.6 Y82.124 E599.22954
G0 F7200 X179.2 Y86.233
G1 F1350 X179.2 Y114.188 E602.57677
G0 F7200 X30.4 Y124.752
G1 F1350 X30.4 Y76.597 E608.34268
G0 F7200 X28.8 Y77.682
G1 F1350 X28.8 Y123.649 E613.84661
G0 F7200 X27.2 Y122.18
G1 F1350 X27.2 Y79.117 E619.00282
G0 F7200 X25.6 Y81.048
G1 F1350 X25.6 Y120.178 E623.68811
G0 F7200 X24 Y116.984
G1 F1350 X24 Y84.006 E627.63678
G0 F7200 X25.987 Y120.739
;TIME_ELAPSED:246.642542
;LAYER:-6
M140 S70
G0 X25.987 Y120.739 Z0.585
;TYPE:SUPPORT
G1 F1350 X29.217 Y123.969 E627.97862
G1 X29.01 Y123.822 E627.99762
G1 X28.185 Y123.141 E628.07767
G1 X27.541 Y122.538 E628.1437
G1 X27.409 Y122.406 E628.15767
G1 X26.766 Y121.712 E628.22847
G1 X26.09 Y120.877 E628.30887
G0 F7200 X29.217 Y123.969
G1 F1350 X29.767 Y124.362 E628.35945
G1 X30.653 Y124.908 E628.43734
G1 X30.824 Y125.004 E628.45201
G1 X31.756 Y125.476 E628.53019
G1 X32.419 Y125.757 E628.58408
G1 X24.227 Y117.565 E629.45107
G1 X24.061 Y117.153 E629.48431
G1 X23.999 Y116.98 E629.49806
G1 X23.722 Y116.119 E629.56574
G1 X23.565 Y115.489 E629.61433
G1 X34.491 Y126.415 E630.77067
G1 X34.78 Y126.489 E630.79299
G1 X35.665 Y126.652 E630.86033
G1 X35.839 Y126.677 E630.87349
G1 X36.205 Y126.714 E630.90102
G1 X23.257 Y113.767 E632.27129
G1 X23.185 Y112.976 E632.33073
G1 X23.161 Y112.256 E632.38464
G1 X37.719 Y126.815 E633.92541
G1 X37.879 Y126.821 E633.9374
G1 X39.14 Y126.821 E634.03176
G1 X23.157 Y110.838 E635.72329
G1 X23.157 Y109.424 E635.82911
G1 X40.544 Y126.811 E637.66923
G1 X40.911 Y126.801 E637.69671
G1 X41.865 Y126.718 E637.76837
G1 X23.147 Y107.999 E639.74941
G1 X23.12 Y107.548 E639.78322
G1 X23.016 Y106.675 E639.84901
G1 X23.002 Y106.503 E639.86192
G1 X22.999 Y106.437 E639.86687
G1 X43.087 Y126.526 E641.9929
G1 X43.18 Y126.507 E642
G1 X44.052 Y126.294 E642.06718
G1 X44.223 Y126.247 E642.08045
G1 X22.956 Y104.981 E644.33115
G1 X22.956 Y103.567 E644.43696
G1 X45.285 Y125.895 E646.80006
G1 X46.07 Y125.578 E646.86341
G1 X46.217 Y125.513 E646.87544
G1 X46.284 Y125.48 E646.88103
G1 X22.956 Y102.152 E649.3499
G1 X22.956 Y100.738 E649.45572
G1 X47.265 Y125.047 E652.02842
G1 X47.713 Y124.901 E652.06368
G1 X48.383 Y124.772 E652.11474
G1 X48.403 Y124.771 E652.11624
G1 X22.956 Y99.324 E654.80937
G1 X22.956 Y97.91 E654.91519
G1 X49.777 Y124.73 E657.75369
G1 X51.191 Y124.73 E657.85951
G1 X22.956 Y96.496 E660.84765
G1 X22.956 Y95.081 E660.95354
G1 X52.605 Y124.73 E664.09139
G1 X54.02 Y124.73 E664.19728
G1 X22.956 Y93.667 E667.48483
G1 X22.956 Y92.253 E667.59064
G1 X55.434 Y124.73 E671.02784
G1 X56.848 Y124.73 E671.13365
G1 X22.956 Y90.839 E674.7205
G1 X22.956 Y89.424 E674.82639
G1 X58.262 Y124.73 E678.56293
G1 X59.676 Y124.73 E678.66875
G1 X23.025 Y88.079 E682.54764
G1 X23.13 Y87.188 E682.61478
G1 X23.196 Y86.836 E682.64158
G1 X61.091 Y124.73 E686.65207
G1 X62.505 Y124.73 E686.75789
G1 X23.451 Y85.677 E690.89104
G1 X23.553 Y85.288 E690.92114
G1 X23.605 Y85.119 E690.93437
G1 X23.782 Y84.594 E690.97583
G1 X63.919 Y124.73 E695.2236
G1 X65.333 Y124.73 E695.32942
G1 X24.18 Y83.577 E699.68477
G1 X24.296 Y83.308 E699.70669
G1 X24.376 Y83.133 E699.72109
G1 X24.639 Y82.622 E699.7641
G1 X66.748 Y124.73 E704.22057
G1 X68.162 Y124.73 E704.32639
G1 X25.153 Y81.721 E708.87817
G1 X25.332 Y81.429 E708.9038
G1 X25.432 Y81.278 E708.91735
G1 X25.722 Y80.876 E708.95444
G1 X69.576 Y124.73 E713.59565
G1 X70.99 Y124.73 E713.70147
G1 X26.339 Y80.079 E718.42702
G1 X26.73 Y79.615 E718.47243
G1 X27.001 Y79.327 E718.50202
G1 X72.404 Y124.73 E723.30716
G1 X73.819 Y124.73 E723.41305
G1 X27.711 Y78.623 E728.29275
G1 X28.181 Y78.185 E728.34083
G1 X28.321 Y78.066 E728.35458
G1 X28.458 Y77.956 E728.36773
G1 X75.233 Y124.73 E733.31802
G1 X76.647 Y124.73 E733.42384
G1 X29.254 Y77.337 E738.43959
G1 X29.866 Y76.915 E738.49522
G1 X30.049 Y76.799 E738.51143
G1 X30.101 Y76.77 E738.51589
G1 X78.061 Y124.73 E743.59164
G1 X79.475 Y124.73 E743.69746
G1 X30.999 Y76.254 E748.82783
G1 X31.893 Y75.82 E748.9022
G1 X31.954 Y75.795 E748.90713
G1 X80.89 Y124.73 E754.08613
G1 X82.304 Y124.73 E754.19194
G1 X32.97 Y75.397 E759.41306
G1 X33.753 Y75.146 E759.47459
G1 X33.918 Y75.1 E759.48741
G1 X34.055 Y75.067 E759.49796
G1 X83.718 Y124.73 E764.75395
G1 X85.132 Y124.73 E764.85976
G1 X35.213 Y74.811 E770.14285
G1 X35.844 Y74.707 E770.1907
G1 X36.022 Y74.683 E770.20415
G1 X36.46 Y74.644 E770.23705
G1 X86.547 Y124.73 E775.53786
G1 X87.961 Y124.73 E775.64368
G1 X37.804 Y74.573 E780.95195
G1 X39.218 Y74.573 E781.05777
G1 X89.375 Y124.73 E786.36604
G1 X90.789 Y124.73 E786.47186
G1 X40.632 Y74.573 E791.78013
G1 X42.046 Y74.573 E791.88594
G1 X92.203 Y124.73 E797.19422
G1 X93.618 Y124.73 E797.30011
G1 X43.46 Y74.573 E802.60843
G1 X44.875 Y74.573 E802.71432
